groups/alkanes/t-butyl.svg

<?xml version='1.0' encoding='iso-8859-1'?>
<svg version='1.1' baseProfile='full'
              xmlns='http://www.w3.org/2000/svg'
                      xmlns:rdkit='http://www.rdkit.org/xml'
                      xmlns:xlink='http://www.w3.org/1999/xlink'
                  xml:space='preserve'
width='256px' height='256px' viewBox='0 0 256 256'>
<!-- END OF HEADER -->
<rect style='opacity:1.0;fill:#FFFFFF;stroke:none' width='256.0' height='256.0' x='0.0' y='0.0'> </rect>
<path class='bond-0 atom-0 atom-1' d='M 161.1,71.5 L 126.5,130.8' style='fill:none;fill-rule:evenodd;stroke:#000000;stroke-width:2.0px;stroke-linecap:butt;stroke-linejoin:miter;stroke-opacity:1' />
<path class='bond-1 atom-1 atom-2' d='M 126.5,130.8 L 105.1,93.5' style='fill:none;fill-rule:evenodd;stroke:#000000;stroke-width:2.0px;stroke-linecap:butt;stroke-linejoin:miter;stroke-opacity:1' />
<path class='bond-2 atom-1 atom-3' d='M 126.5,130.8 L 171.5,157.1' style='fill:none;fill-rule:evenodd;stroke:#000000;stroke-width:2.0px;stroke-linecap:butt;stroke-linejoin:miter;stroke-opacity:1' />
<path class='bond-3 atom-1 atom-4' d='M 126.5,130.8 L 81.1,156.7' style='fill:none;fill-rule:evenodd;stroke:#000000;stroke-width:2.0px;stroke-linecap:butt;stroke-linejoin:miter;stroke-opacity:1' />
<path class='atom-1' d='M131.393,54.19 C130.096,56.4146 133.062,58.1445 134.359,55.92 C135.657,53.6954 138.623,55.4253 137.326,57.6499 C136.028,59.8745 138.994,61.6045 140.292,59.3799 C141.589,57.1553 144.555,58.8853 143.258,61.1098 C141.96,63.3344 144.927,65.0644 146.224,62.8398 C147.521,60.6152 150.488,62.3452 149.19,64.5698 C147.893,66.7944 150.859,68.5243 152.156,66.2997 C153.454,64.0752 156.42,65.8051 155.122,68.0297 C153.825,70.2543 156.791,71.9842 158.089,69.7597 C159.386,67.5351 162.352,69.265 161.055,71.4896 C159.757,73.7142 162.723,75.4442 164.021,73.2196 C165.318,70.995 168.284,72.725 166.987,74.9495 C165.689,77.1741 168.656,78.9041 169.953,76.6795 C171.251,74.4549 174.217,76.1849 172.919,78.4095 C171.622,80.634 174.588,82.364 175.885,80.1394 C177.183,77.9149 180.149,79.6448 178.852,81.8694 C177.554,84.094 180.52,85.8239 181.818,83.5994 C183.115,81.3748 186.081,83.1047 184.784,85.3293 C183.486,87.5539 186.452,89.2839 187.75,87.0593 C189.047,84.8347 192.014,86.5647 190.716,88.7892' style='fill:none;stroke:#7F7F7F;stroke-width:2.0px;stroke-linecap:butt;stroke-linejoin:miter;stroke-opacity:1' />
<text x='40.0' y='91.2' class='atom-2' style='font-size:40px;font-style:normal;font-weight:normal;fill-opacity:1;stroke:none;font-family:sans-serif;text-anchor:start;fill:#000000' >H</text>
<text x='67.6' y='107.2' class='atom-2' style='font-size:26px;font-style:normal;font-weight:normal;fill-opacity:1;stroke:none;font-family:sans-serif;text-anchor:start;fill:#000000' >3</text>
<text x='80.4' y='91.2' class='atom-2' style='font-size:40px;font-style:normal;font-weight:normal;fill-opacity:1;stroke:none;font-family:sans-serif;text-anchor:start;fill:#000000' >C</text>
<text x='173.8' y='185.4' class='atom-3' style='font-size:40px;font-style:normal;font-weight:normal;fill-opacity:1;stroke:none;font-family:sans-serif;text-anchor:start;fill:#000000' >C</text>
<text x='201.4' y='185.4' class='atom-3' style='font-size:40px;font-style:normal;font-weight:normal;fill-opacity:1;stroke:none;font-family:sans-serif;text-anchor:start;fill:#000000' >H</text>
<text x='229.0' y='201.4' class='atom-3' style='font-size:26px;font-style:normal;font-weight:normal;fill-opacity:1;stroke:none;font-family:sans-serif;text-anchor:start;fill:#000000' >3</text>
<text x='14.4' y='184.9' class='atom-4' style='font-size:40px;font-style:normal;font-weight:normal;fill-opacity:1;stroke:none;font-family:sans-serif;text-anchor:start;fill:#000000' >H</text>
<text x='42.0' y='200.9' class='atom-4' style='font-size:26px;font-style:normal;font-weight:normal;fill-opacity:1;stroke:none;font-family:sans-serif;text-anchor:start;fill:#000000' >3</text>
<text x='54.8' y='184.9' class='atom-4' style='font-size:40px;font-style:normal;font-weight:normal;fill-opacity:1;stroke:none;font-family:sans-serif;text-anchor:start;fill:#000000' >C</text>
</svg>

<svg height="256" viewBox="0 0 256 256" width="256" xmlns="http://www.w3.org/2000/svg"><path d="m0 0h256v256h-256z" fill="#fff"/><path d="m161.1 71.5-34.6 59.3" fill="none" stroke="#000" stroke-width="2"/><path d="m126.5 130.8-21.4-37.3" fill="none" stroke="#000" stroke-width="2"/><path d="m126.5 130.8 45 26.3" fill="none" stroke="#000" stroke-width="2"/><path d="m126.5 130.8-45.4 25.9" fill="none" stroke="#000" stroke-width="2"/><path d="m131.393 54.19c-1.297 2.225 1.669 3.955 2.966 1.73 1.298-2.225 4.264-.495 2.967 1.73-1.298 2.225 1.668 3.955 2.966 1.73 1.297-2.225 4.263-.495 2.966 1.73-1.298 2.224 1.669 3.954 2.966 1.73 1.297-2.225 4.264-.495 2.966 1.73-1.297 2.224 1.669 3.954 2.966 1.73 1.298-2.225 4.264-.495 2.966 1.73-1.297 2.224 1.669 3.954 2.967 1.73 1.297-2.225 4.263-.495 2.966 1.73-1.298 2.224 1.668 3.954 2.966 1.73 1.297-2.225 4.263-.495 2.966 1.73-1.298 2.224 1.669 3.954 2.966 1.73 1.298-2.225 4.264-.495 2.966 1.73-1.297 2.224 1.669 3.954 2.966 1.729 1.298-2.224 4.264-.494 2.967 1.73-1.298 2.225 1.668 3.955 2.966 1.73 1.297-2.224 4.263-.494 2.966 1.73-1.298 2.225 1.668 3.955 2.966 1.73 1.297-2.224 4.264-.494 2.966 1.73" fill="none" stroke="#7f7f7f" stroke-width="2"/><g font-family="sans-serif"><text font-size="40" x="40" y="91.2">H</text><text font-size="26" x="67.6" y="107.2">3</text><text font-size="40" x="80.4" y="91.2">C</text><text font-size="40" x="173.8" y="185.4">C</text><text font-size="40" x="201.4" y="185.4">H</text><text font-size="26" x="229" y="201.4">3</text><text font-size="40" x="14.4" y="184.9">H</text><text font-size="26" x="42" y="200.9">3</text><text font-size="40" x="54.8" y="184.9">C</text></g></svg>
